X: 3
T: The Glen Cottage
R: polka
M: 2/4
L: 1/8
K: Edor
|: F/A/ |BE FA | B>A FA | BE G/F/E | DD/E/ FA |
BE FA | BB/A/ FA | Be B/c/B/A/ | FE E :|
|: F/A/ |B2 Bc/d/ | eB cB | A2 AB/c/ | dA BA |
B2 Bc/d/ | e/f/e/B/ cA | AB/c/ dF | FE E :|


Tune 5278	Setting 17508

